X: 35986
T: Sarty Party
R: reel
M: 4/4
K: Gdorian
GD D/D/D D2GA|BG((3AGF) GFDE|FC C/C/C AFGE|FGAc fdcA|
GD D/D/D D2GA|BG((3AGF) GFDF|f/f/f fd cdfc|fdcA (FG)GG:|
|:dg g/g/g g2fc|dg g/g/g g2fd|cf f/f/f fefg|afge fdcf|
dg g/g/g g2fc|dg g/g/g g2fd|c/c/c Ac fdcf|dcAF (FG)GG:|

